lib/logo_updates/nrk-logo-nrk-nyheter-with-bg.svg

<svg width="399" height="84" viewBox="0 0 399 84" fill="none" xmlns="http://www.w3.org/2000/svg">
<rect width="399" height="84" fill="#1767CE"/>
<path d="M20 63V21.0038H33.7802V63H20ZM52.5283 27.6877L60.4532 63H45.3721L35.9092 21.0038H44.3676C46.3072 20.9786 48.1892 21.6624 49.6607 22.9264C51.1347 24.1373 52.1473 25.8184 52.5283 27.6877ZM62.5233 63V21.0038H76.3035V63H62.5233ZM86.7116 36.9743C85.2267 36.9888 83.7656 36.6003 82.4839 35.8504C81.2193 35.1194 80.1688 34.0689 79.438 32.8041C78.6872 31.5222 78.2986 30.0607 78.3134 28.5751C78.2964 27.0986 78.6853 25.6458 79.438 24.3755C80.1766 23.1245 81.2259 22.0853 82.4839 21.3588C83.766 20.6098 85.2269 20.2213 86.7116 20.2348C88.1877 20.2189 89.6399 20.6078 90.9108 21.3588C92.1562 22.0917 93.1943 23.13 93.9271 24.3755C94.6789 25.6462 95.0677 27.0987 95.0517 28.5751C95.0655 30.0605 94.6769 31.5218 93.9271 32.8041C93.202 34.0633 92.1627 35.113 90.9108 35.8504C89.6398 36.6029 88.1866 36.9918 86.7097 36.9743H86.7116ZM97.1807 63V21.0038H110.962V63H97.1807ZM128.408 43.9538C128.447 43.9946 128.742 44.4776 129.295 45.403C129.848 46.3283 130.567 47.5114 131.454 48.952C132.341 50.392 133.277 51.9199 134.262 53.536C135.247 55.1521 136.174 56.6803 137.043 58.1202C137.908 59.5602 138.894 61.1867 140 63H124.859C123.912 61.4621 123.055 60.0721 122.286 58.83C121.517 57.5878 120.7 56.2471 119.833 54.8077C118.965 53.3698 118.107 51.9699 117.259 50.6081C116.41 49.2464 115.681 48.0536 115.071 47.0297C114.459 46.0051 114.035 45.3149 113.799 44.9594C113.214 44.0771 112.868 43.058 112.794 42.0019C112.853 40.9883 113.179 40.0084 113.74 39.1619C113.976 38.7676 114.41 38.0675 115.041 37.062C115.672 36.0564 116.411 34.8637 117.259 33.4835C118.106 32.1034 118.965 30.6936 119.833 29.2543C120.702 27.815 121.519 26.4643 122.286 25.2025C123.056 23.9419 123.914 22.5421 124.859 21.0029H140L128.289 40.1082C127.926 40.6755 127.722 41.3292 127.697 42.0019C127.736 42.7081 127.983 43.3871 128.406 43.9538H128.408Z" fill="white"/>
<path d="M186.085 52.9465L160.816 20.9613H156V63.0029H161.589V31L186.918 63.0029H191.734V20.9613H186.086L186.085 52.9465Z" fill="#D4EEFC"/>
<path d="M221.284 33.1002L221.237 55.2756C220.804 55.5273 220.372 55.769 219.949 55.9862C219.226 56.3566 218.482 56.6826 217.719 56.9622C216.997 57.2308 216.25 57.4291 215.49 57.5543C214.713 57.6762 213.928 57.7356 213.142 57.732C211.926 57.7806 210.717 57.5151 209.634 56.9613C208.695 56.4193 207.971 55.5733 207.583 54.5641C207.09 53.2696 206.857 51.8909 206.898 50.5069V32.21L200.834 33.0981V51.6902C200.761 53.935 201.146 56.1711 201.964 58.2639C202.621 59.8955 203.831 61.2467 205.383 62.0832C207.147 62.9454 209.097 63.362 211.06 63.2961C212.7 63.3072 214.329 63.0371 215.877 62.4977C217.404 61.9538 218.845 61.1958 220.157 60.2466C220.519 59.987 220.876 59.7117 221.233 59.4255L221.227 61.9915C221.227 64.9522 220.533 67.2022 219.146 68.7418C217.759 70.2813 215.4 71.0511 212.071 71.0511C211.159 71.0511 210.227 71.0113 209.276 70.9317C208.327 70.8535 207.384 70.7153 206.452 70.5181C205.521 70.3207 204.579 70.074 203.627 69.778C202.675 69.4819 201.724 69.1366 200.773 68.7418L201.428 74.0118C202.221 74.3263 203.053 74.6124 203.924 74.8704C204.796 75.1283 205.687 75.3454 206.6 75.5217C207.511 75.6994 208.463 75.8375 209.454 75.9362C210.445 76.0348 211.456 76.0839 212.487 76.0833C214.638 76.1194 216.779 75.7893 218.818 75.1072C220.544 74.5248 222.132 73.5976 223.485 72.3824C224.749 71.2245 225.735 69.7981 226.37 68.2088C227.042 66.4923 227.375 64.6627 227.351 62.8204L227.291 32.2061L221.284 33.1002Z" fill="#D4EEFC"/>
<path d="M259.452 33.3953C257.706 32.5115 255.762 32.084 253.804 32.1528C252.059 32.1524 250.324 32.4218 248.662 32.9512C246.973 33.486 245.363 34.2431 243.875 35.2023C243.427 35.4895 242.994 35.7944 242.567 36.1191V18.2969L236.502 19.1851V63.003H242.567V40.2493C243.037 39.9927 243.518 39.748 244.022 39.5249C244.864 39.155 245.728 38.8385 246.61 38.5774C247.459 38.3263 248.322 38.1285 249.196 37.9853C250.012 37.8501 250.837 37.7809 251.663 37.7781C252.614 37.758 253.561 37.9084 254.458 38.2222C255.215 38.4944 255.89 38.9527 256.421 39.5545C256.966 40.2076 257.352 40.9778 257.549 41.8046C257.804 42.8507 257.924 43.9248 257.907 45.0012V63.0021H263.971V43.7577C264.05 41.5128 263.665 39.2755 262.84 37.1849C262.169 35.5794 260.976 34.245 259.452 33.3953Z" fill="#D4EEFC"/>
<path d="M296.019 36.6235C294.877 35.1502 293.371 33.9971 291.648 33.2769C289.733 32.4995 287.681 32.1171 285.614 32.1528C283.531 32.1174 281.464 32.5211 279.549 33.3372C277.807 34.0965 276.255 35.2283 275.001 36.6521C273.71 38.1488 272.738 39.8918 272.146 41.775C271.469 43.9301 271.138 46.1784 271.166 48.4365C271.082 51.2897 271.683 54.1217 272.919 56.6968C274.049 58.9283 275.874 60.7356 278.121 61.8485C280.758 63.0856 283.652 63.6842 286.565 63.5953C287.967 63.6068 289.367 63.5177 290.756 63.3288C291.916 63.162 293.061 62.8945 294.175 62.5294C295.279 62.1599 296.353 61.7045 297.386 61.1675L297.801 56.608C297.048 56.8844 296.285 57.1607 295.512 57.437C294.739 57.7133 293.937 57.96 293.104 58.1772C292.265 58.3964 291.41 58.5544 290.548 58.6499C289.679 58.7492 288.806 58.799 287.932 58.7989C286.371 58.8241 284.813 58.655 283.294 58.2956C282.069 58.0036 280.935 57.4136 279.995 56.5784C279.045 55.6775 278.348 54.5445 277.974 53.2921C277.585 52.0236 277.367 50.7095 277.325 49.384H298.812C299.105 46.9348 298.994 44.4544 298.485 42.0405C298.067 40.0781 297.225 38.2297 296.019 36.6235ZM281.036 38.0436C282.431 37.2005 284.041 36.7792 285.672 36.8307C287.305 36.7494 288.918 37.2188 290.25 38.1631C291.434 39.1042 292.28 40.403 292.658 41.8639C292.955 42.9442 293.101 44.06 293.092 45.1799H277.456C277.566 43.9991 277.819 42.8359 278.211 41.7159C278.718 40.2142 279.712 38.9226 281.036 38.0436Z" fill="#D4EEFC"/>
<path d="M321.912 58.2353L320.901 58.414C320.576 58.4715 320.249 58.5111 319.92 58.5324C319.602 58.5531 319.304 58.561 319.028 58.561C318.117 58.5862 317.212 58.4039 316.382 58.028C315.668 57.6918 315.077 57.1441 314.688 56.4598C314.271 55.6875 314.066 54.8196 314.093 53.9433V37.5412H322.476L323.13 32.8041H314.093V23.4474L308.029 25.5801V32.8041H303.45L302.796 37.5412H308.029V55.1868C308.002 56.3635 308.183 57.5356 308.564 58.6498C308.87 59.5318 309.344 60.3466 309.961 61.0489C310.527 61.6742 311.215 62.178 311.982 62.5293C312.769 62.8881 313.597 63.1465 314.449 63.2981C315.292 63.4533 316.148 63.5326 317.005 63.5349C317.64 63.5349 318.264 63.5155 318.879 63.4766C319.494 63.4378 320.059 63.3784 320.574 63.2981C321.088 63.2191 321.575 63.1303 322.03 63.0326C322.486 62.9349 322.872 62.8451 323.19 62.7651L323.547 57.8514C323.315 57.9404 323.076 58.0097 322.833 58.0586C322.555 58.1168 322.248 58.1771 321.912 58.2353Z" fill="#D4EEFC"/>
<path d="M351.907 36.6235C350.766 35.1503 349.26 33.9972 347.537 33.2769C345.622 32.4995 343.57 32.1171 341.502 32.1528C339.42 32.1177 337.353 32.5213 335.438 33.3372C333.696 34.0968 332.143 35.2285 330.889 36.6521C329.598 38.1486 328.627 39.8913 328.036 41.7741C327.358 43.9292 327.027 46.1775 327.055 48.4356C326.972 51.2887 327.573 54.1206 328.808 56.6959C329.939 58.9275 331.764 60.7347 334.011 61.8474C336.648 63.0843 339.541 63.6829 342.455 63.5942C343.856 63.6058 345.257 63.5167 346.645 63.3277C347.806 63.1609 348.95 62.8935 350.065 62.5284C351.169 62.1592 352.243 61.7038 353.275 61.1665L353.692 56.6071C352.938 56.8834 352.175 57.1597 351.402 57.436C350.629 57.7124 349.826 57.9591 348.995 58.1762C348.155 58.3953 347.301 58.5533 346.438 58.6489C345.57 58.7482 344.696 58.798 343.822 58.7979C342.261 58.8231 340.703 58.654 339.184 58.2946C337.958 58.0022 336.825 57.4123 335.885 56.5774C334.935 55.676 334.238 54.5432 333.863 53.2911C333.475 52.0227 333.257 50.7086 333.215 49.3831H354.701C354.994 46.9338 354.884 44.4534 354.375 42.0396C353.956 40.0775 353.114 38.2294 351.907 36.6235ZM336.924 38.0436C338.319 37.2004 339.93 36.779 341.562 36.8307C343.195 36.7495 344.808 37.2189 346.14 38.1631C347.324 39.1043 348.168 40.4031 348.547 41.8639C348.844 42.944 348.99 44.0599 348.981 45.1799H333.345C333.455 43.9991 333.708 42.836 334.099 41.7159C334.607 40.2144 335.601 38.9229 336.924 38.0436Z" fill="#D4EEFC"/>
<path d="M374.558 32.596C373.446 32.8928 372.384 33.3517 371.408 33.9579C370.393 34.5883 369.455 35.3334 368.612 36.1784C368.472 36.3176 368.336 36.4745 368.196 36.6215V32.2101L362.131 33.0982V63.0011H368.196V40.6312C368.647 40.318 369.114 40.0275 369.594 39.7608C370.189 39.4347 370.805 39.1477 371.437 38.9021C372.05 38.664 372.675 38.4568 373.31 38.2805C373.962 38.0992 374.628 37.9704 375.301 37.8956C376.022 37.816 376.748 37.7958 377.472 37.8354L378.185 32.2702C376.966 32.183 375.741 32.2931 374.558 32.596Z" fill="#D4EEFC"/>
</svg>

<svg xmlns="http://www.w3.org/2000/svg" viewBox="0 0 399 84"><path fill="#1767CE" d="M0 0h399v84H0z"/><path fill="#fff" d="M20 63V21.004h13.78V63H20Zm32.528-35.312L60.453 63h-15.08l-9.464-41.996h8.459a7.965 7.965 0 0 1 5.293 1.922 8.31 8.31 0 0 1 2.867 4.762ZM62.523 63V21.004h13.78V63h-13.78Zm24.189-26.026a8.213 8.213 0 0 1-4.228-1.124 8.336 8.336 0 0 1-3.046-3.046 8.206 8.206 0 0 1-1.125-4.229 8.056 8.056 0 0 1 1.125-4.2 8.437 8.437 0 0 1 3.046-3.016 8.233 8.233 0 0 1 4.228-1.124 8.083 8.083 0 0 1 4.199 1.124 8.504 8.504 0 0 1 3.016 3.016 8.075 8.075 0 0 1 1.125 4.2 8.226 8.226 0 0 1-1.125 4.23 8.4 8.4 0 0 1-3.016 3.045 8.059 8.059 0 0 1-4.201 1.124h.002ZM97.18 63V21.004h13.781V63H97.181Zm31.227-19.046c.039.04.334.524.887 1.449.553.925 1.272 2.108 2.159 3.549a1143.28 1143.28 0 0 1 5.589 9.168A854.89 854.89 0 0 0 140 63h-15.141c-.947-1.538-1.804-2.928-2.573-4.17a388.795 388.795 0 0 1-2.453-4.022 355.984 355.984 0 0 0-2.574-4.2 210.645 210.645 0 0 1-2.188-3.578 62.13 62.13 0 0 0-1.272-2.07 6.127 6.127 0 0 1-1.005-2.958 5.745 5.745 0 0 1 .946-2.84c.236-.394.67-1.094 1.301-2.1.631-1.006 1.37-2.198 2.218-3.578.847-1.38 1.706-2.79 2.574-4.23.869-1.439 1.686-2.79 2.453-4.052.77-1.26 1.628-2.66 2.573-4.2H140l-11.711 19.106a3.773 3.773 0 0 0-.592 1.894c.039.706.286 1.385.709 1.952h.002Z"/><path fill="#D4EEFC" d="M186.085 52.947 160.816 20.96H156v42.042h5.589V31l25.329 32.003h4.816V20.96h-5.648l-.001 31.986ZM221.284 33.1l-.047 22.176c-.433.251-.865.493-1.288.71-.723.37-1.467.697-2.23.976a11.98 11.98 0 0 1-2.229.592c-.777.122-1.562.182-2.348.178a7.086 7.086 0 0 1-3.508-.77 4.728 4.728 0 0 1-2.051-2.398 10.524 10.524 0 0 1-.685-4.057V32.21l-6.064.888V51.69a16.577 16.577 0 0 0 1.13 6.574 7.54 7.54 0 0 0 3.419 3.82 12.012 12.012 0 0 0 5.677 1.212c1.64.011 3.269-.259 4.817-.798a17.077 17.077 0 0 0 4.28-2.251c.362-.26.719-.535 1.076-.822l-.006 2.567c0 2.96-.694 5.21-2.081 6.75s-3.746 2.31-7.075 2.31c-.912 0-1.844-.04-2.795-.12a22.611 22.611 0 0 1-2.824-.414 31.578 31.578 0 0 1-2.825-.74 33.017 33.017 0 0 1-2.854-1.036l.655 5.27c.793.314 1.625.6 2.496.858a28.43 28.43 0 0 0 2.676.652 30.922 30.922 0 0 0 5.887.561 18.954 18.954 0 0 0 6.331-.976 13.391 13.391 0 0 0 4.667-2.725 11.393 11.393 0 0 0 2.885-4.173 14.27 14.27 0 0 0 .981-5.389l-.06-30.614-6.007.894ZM259.452 33.395a11.606 11.606 0 0 0-5.648-1.242c-1.745 0-3.48.269-5.142.798a19.951 19.951 0 0 0-6.095 3.168V18.297l-6.065.888v43.818h6.065V40.249c.47-.256.951-.501 1.455-.724.842-.37 1.706-.686 2.588-.948a21.202 21.202 0 0 1 2.586-.592 15.412 15.412 0 0 1 2.467-.207c.951-.02 1.898.13 2.795.444a4.77 4.77 0 0 1 1.963 1.332 5.502 5.502 0 0 1 1.128 2.25c.255 1.047.375 2.12.358 3.197v18.001h6.064V43.758a16.34 16.34 0 0 0-1.131-6.573 7.771 7.771 0 0 0-3.388-3.79ZM296.019 36.623a10.799 10.799 0 0 0-4.371-3.346 15.336 15.336 0 0 0-6.034-1.124 14.829 14.829 0 0 0-6.065 1.184 12.96 12.96 0 0 0-4.548 3.315 14.504 14.504 0 0 0-2.855 5.123 21.344 21.344 0 0 0-.98 6.662 17.873 17.873 0 0 0 1.753 8.26 11.599 11.599 0 0 0 5.202 5.151 18.553 18.553 0 0 0 8.444 1.747 29.31 29.31 0 0 0 4.191-.266 20.226 20.226 0 0 0 3.419-.8 22.324 22.324 0 0 0 3.211-1.362l.415-4.559c-.753.276-1.516.553-2.289.829a28.55 28.55 0 0 1-2.408.74c-.839.22-1.694.377-2.556.473-.869.1-1.742.149-2.616.149a18.824 18.824 0 0 1-4.638-.503 7.631 7.631 0 0 1-3.299-1.718 7.48 7.48 0 0 1-2.021-3.286 14.943 14.943 0 0 1-.649-3.908h21.487c.293-2.45.182-4.93-.327-7.343a13.817 13.817 0 0 0-2.466-5.417Zm-14.983 1.42a8.447 8.447 0 0 1 4.636-1.212 7.29 7.29 0 0 1 4.578 1.332 6.955 6.955 0 0 1 2.408 3.7 12.14 12.14 0 0 1 .434 3.317h-15.636c.11-1.18.363-2.344.755-3.464a7.158 7.158 0 0 1 2.825-3.672ZM321.912 58.235l-1.011.179a8.943 8.943 0 0 1-.981.118c-.318.021-.616.029-.892.029a6.011 6.011 0 0 1-2.646-.533 3.82 3.82 0 0 1-1.694-1.568 4.973 4.973 0 0 1-.595-2.517V37.541h8.383l.654-4.737h-9.037v-9.357l-6.064 2.133v7.224h-4.579l-.654 4.737h5.233v17.646a9.993 9.993 0 0 0 .535 3.463 7.22 7.22 0 0 0 1.397 2.399 6.22 6.22 0 0 0 2.021 1.48 10.29 10.29 0 0 0 2.467.77c.843.154 1.699.234 2.556.236.635 0 1.259-.02 1.874-.058a18.69 18.69 0 0 0 1.695-.179 25.18 25.18 0 0 0 1.456-.265c.456-.098.842-.188 1.16-.268l.357-4.914a4.44 4.44 0 0 1-.714.208c-.278.058-.585.118-.921.176ZM351.907 36.623a10.79 10.79 0 0 0-4.37-3.346 15.338 15.338 0 0 0-6.035-1.124 14.836 14.836 0 0 0-6.064 1.184 12.97 12.97 0 0 0-4.549 3.315 14.481 14.481 0 0 0-2.853 5.122 21.316 21.316 0 0 0-.981 6.662 17.899 17.899 0 0 0 1.753 8.26 11.604 11.604 0 0 0 5.203 5.151 18.555 18.555 0 0 0 8.444 1.747 29.267 29.267 0 0 0 4.19-.266 20.237 20.237 0 0 0 3.42-.8 22.197 22.197 0 0 0 3.21-1.361l.417-4.56c-.754.276-1.517.553-2.29.829a28.68 28.68 0 0 1-2.407.74c-.84.22-1.694.377-2.557.473a23 23 0 0 1-2.616.149 18.824 18.824 0 0 1-4.638-.503 7.633 7.633 0 0 1-3.299-1.718 7.495 7.495 0 0 1-2.022-3.286 14.982 14.982 0 0 1-.648-3.908h21.486c.293-2.45.183-4.93-.326-7.343a13.817 13.817 0 0 0-2.468-5.416Zm-14.983 1.42a8.449 8.449 0 0 1 4.638-1.212 7.291 7.291 0 0 1 4.578 1.332 6.96 6.96 0 0 1 2.407 3.7c.297 1.081.443 2.197.434 3.317h-15.636c.11-1.18.363-2.344.754-3.464a7.17 7.17 0 0 1 2.825-3.672ZM374.558 32.596a11.68 11.68 0 0 0-3.15 1.362 15.503 15.503 0 0 0-2.796 2.22c-.14.14-.276.297-.416.444V32.21l-6.065.888v29.903h6.065v-22.37c.451-.313.918-.603 1.398-.87a15.57 15.57 0 0 1 1.843-.859 19.806 19.806 0 0 1 1.873-.621c.652-.182 1.318-.31 1.991-.385.721-.08 1.447-.1 2.171-.06l.713-5.566a11.357 11.357 0 0 0-3.627.326Z"/></svg>
